src/icons/solid/ai/virtual-agent.svg

<svg width="24" height="24" viewBox="0 0 24 24" fill="none" xmlns="http://www.w3.org/2000/svg">
<g clip-path="url(#clip0_6352_1428)">
<path d="M19.1396 13.123C19.2696 13.123 19.3805 13.1628 19.4805 13.2432C19.5002 13.2435 19.5104 13.2635 19.5303 13.2734C19.6402 13.3639 19.7102 13.4846 19.7402 13.6152C20.0203 15.062 21.1403 16.1972 22.5303 16.4785C22.6602 16.5087 22.7902 16.579 22.8701 16.6895C22.959 16.7986 22.9981 16.9277 22.999 17.0664C22.9981 17.2053 22.959 17.3439 22.8701 17.4531C22.7902 17.5636 22.6602 17.6339 22.5303 17.6641C21.1403 17.9454 20.0203 19.0809 19.7402 20.5176C19.7103 20.6581 19.6401 20.7787 19.5303 20.8691C19.4203 20.9596 19.2896 21 19.1396 21C19.0098 20.9999 18.8697 20.9595 18.7598 20.8691C18.6499 20.7787 18.5798 20.6581 18.5498 20.5176C18.4198 19.8545 18.1097 19.2615 17.6797 18.7793C17.5099 18.5886 17.3201 18.4081 17.1104 18.2676C16.8504 18.0767 16.5698 17.926 16.2598 17.8154C16.0998 17.7552 15.93 17.6942 15.75 17.6641C15.62 17.6339 15.5001 17.5636 15.4102 17.4531C15.3202 17.3426 15.2803 17.2122 15.2803 17.0615C15.2803 16.9309 15.3202 16.7902 15.4102 16.6797C15.5001 16.5692 15.62 16.4989 15.75 16.4688C16.69 16.2779 17.51 15.6947 18.04 14.8809C18.2799 14.4992 18.4598 14.0674 18.5498 13.6055C18.5798 13.4749 18.6499 13.3541 18.7598 13.2637C18.8697 13.1733 18.9998 13.1231 19.1396 13.123Z" fill="#3C3B44"/>
<path fill-rule="evenodd" clip-rule="evenodd" d="M10.2402 4C10.6401 4.00012 10.96 4.32182 10.96 4.72363V7.94824H14.9404L14.9297 7.95898C16.4996 7.95898 19.4694 8.72214 19.4697 11.5752V11.626C19.3498 11.5859 19.2498 11.5859 19.1299 11.5859C18.9999 11.5859 18.88 11.5858 18.75 11.626C18.5 11.6662 18.2503 11.7669 18.0303 11.8975C17.9403 11.9377 17.8603 12.0081 17.7803 12.0684C17.3904 12.3898 17.1301 12.8213 17.04 13.3135C16.88 14.1273 16.2201 14.8112 15.4502 14.9619C14.9802 15.0624 14.5297 15.3233 14.2197 15.7051C13.9098 16.0869 13.7402 16.5693 13.7402 17.0615C13.7402 17.383 13.8202 17.6943 13.9502 17.9756C14.0202 18.1362 14.1098 18.2972 14.2197 18.4277C14.2997 18.5282 14.3902 18.6188 14.4902 18.6992C14.7702 18.9403 15.1003 19.1016 15.4502 19.1719C15.6301 19.2121 15.7905 19.2615 15.9404 19.3418C15.6304 19.382 15.2997 19.4121 14.9297 19.4121H5.54004C3.97006 19.4121 1.00007 18.659 1 15.8057V11.5654C1.00014 11.5162 1.05584 7.94824 5.54004 7.94824H9.51953V4.72363C9.51953 4.32174 9.84023 4 10.2402 4ZM7.12012 12.2188C6.62012 12.2188 6.21973 12.6307 6.21973 13.123V14.2578C6.21973 14.7602 6.62012 15.1621 7.12012 15.1621C7.62006 15.162 8.01953 14.7501 8.01953 14.2578V13.123C8.01953 12.6207 7.62006 12.2188 7.12012 12.2188ZM13.3604 12.2188C12.8604 12.2188 12.46 12.6307 12.46 13.123V14.2578C12.46 14.7602 12.8604 15.1621 13.3604 15.1621C13.8602 15.1619 14.2598 14.75 14.2598 14.2578V13.123C14.2598 12.6208 13.8602 12.2189 13.3604 12.2188Z" fill="#3C3B44"/>
<path d="M23 17.0615V17.0713L22.999 17.0664L23 17.0615Z" fill="#3C3B44"/>
</g>
<defs>
<clipPath id="clip0_6352_1428">
<rect width="24" height="24" fill="white"/>
</clipPath>
</defs>
</svg>

<svg xmlns="http://www.w3.org/2000/svg" width="24" height="24" fill="none" viewBox="0 0 24 24"><g fill="currentColor" clip-path="url(#a)"><path d="M19.14 13.123c.13 0 .24.04.34.12.02 0 .03.02.05.03.11.09.18.212.21.342.28 1.447 1.4 2.582 2.79 2.864a.59.59 0 0 1 .469.588c0 .138-.04.277-.129.386-.08.11-.21.18-.34.211-1.39.281-2.51 1.417-2.79 2.854a.59.59 0 0 1-.6.482c-.13 0-.27-.04-.38-.13a.6.6 0 0 1-.21-.352 3.67 3.67 0 0 0-.87-1.739c-.17-.19-.36-.37-.57-.511a3.3 3.3 0 0 0-.85-.453c-.16-.06-.33-.12-.51-.15a.6.6 0 0 1-.47-.603c0-.131.04-.272.13-.382s.21-.181.34-.211c.94-.191 1.76-.774 2.29-1.588.24-.382.42-.814.51-1.276a.62.62 0 0 1 .59-.482"/><path fill-rule="evenodd" d="M10.24 4c.4 0 .72.322.72.724v3.224h3.98l-.01.011c1.57 0 4.54.763 4.54 3.616v.051c-.12-.04-.22-.04-.34-.04-.13 0-.25 0-.38.04-.25.04-.5.14-.72.272-.09.04-.17.11-.25.17-.39.322-.65.753-.74 1.245-.16.814-.82 1.498-1.59 1.649-.47.1-.92.361-1.23.743s-.48.864-.48 1.356c0 .322.08.633.21.915a1.9 1.9 0 0 0 .54.723c.28.241.61.403.96.473.18.04.34.09.49.17-.31.04-.64.07-1.01.07H5.54c-1.57 0-4.54-.753-4.54-3.606v-4.24c0-.05.056-3.618 4.54-3.618h3.98V4.724A.72.72 0 0 1 10.24 4m-3.12 8.219c-.5 0-.9.412-.9.904v1.135a.899.899 0 1 0 1.8 0v-1.135c0-.502-.4-.904-.9-.904m6.24 0c-.5 0-.9.412-.9.904v1.135a.899.899 0 1 0 1.8 0v-1.135c0-.502-.4-.904-.9-.904" clip-rule="evenodd"/><path d="M23 17.062v.01l-.001-.006z"/></g><defs><clipPath id="a"><path fill="currentColor" d="M0 0h24v24H0z"/></clipPath></defs></svg>
